X:14600
T:Rowland Hornpipe. JWDM.15
M:4/4
L:1/8
Q:200
S:J.Winder MS,Wyresdale,Lancs.,1789
R:Hornpipe
O:England
A:Lancashire
N:cf.Kershaw MS
Z:vmp.Taz Tarry
K:D
AFDF EDCE|D2 EF GFED|C2 E2 DEFD|AFDF EDCE|D2d2AGFE|D2A2EFGE:||!
:ABcA BcdB|c2 SBAS GFED|C2 E2 DEFD|ABcA fedc|d2 c-B AGFE|D2F2EFGE:||!
:fgaf efge|c2 c-f efge|c2 c-f efge|fgaf efge|d2 c-B AGFE|D2 F2 EFGE:||!
:AFAF BGBG|AcBA GFED|CDEC|EFGE|AFAF BGBG|BdcB AGFE|DEFD EFGE:|]
